X:1
T:Flowers of May [2], The
S:John Sutherland manuscript; Aberdeenshire pastoral pipe collection, c. 1785
M:6/8
L:1/8
R:Jig
K:D
B|d2D DED|DED B2A|Bcd AGF|BGE EB2|
d2D DED|DED B2A|Bcd A2G|FDD D2:|
|:g|fef d2f|fga d2A|Bcd AGF|BGE E2g|
[1 fef d2g|fga d2A|Bcd A2G|FDD D2g:|
[2 afa gge|fed cBA|Bcd A2G|FDD D2:||

